source/svgs/bowtie/uE92F-comment-discussion.svg

<svg xmlns="http://www.w3.org/2000/svg" viewBox="0 0 448 448"><path d="M128 0v128h-128v224h64v91.938l102.14-91.938h153.86v-93.67l64 57.607v-91.937h64v-224h-320zm160 320h-134.14l-57.86 52.063v-52.063h-64v-160h256v160zm128-128h-64v52.063l-32-28.795v-87.268h-160v-96h256v160z"/></svg>

<svg xmlns="http://www.w3.org/2000/svg" viewBox="0 0 448 448"><path d="M128 0v128H0v224h64v91.938L166.14 352H320v-93.67l64 57.607V224h64V0H128zm160 320H153.86L96 372.063V320H32V160h256v160zm128-128h-64v52.063l-32-28.795V128H160V32h256v160z"/></svg>
